;FLAVOR:Marlin
;TIME:5888
;Filament used: 3.70727m
;Layer height: 0.12
;MINX:73.45
;MINY:61.7
;MINZ:0.12
;MAXX:151.55
;MAXY:163.3
;MAXZ:1.92
;Generated with Creality Slicer 4.8.2-254
M140 S50
M105
M190 S50
M104 S200
M105
M109 S200
M82 ;absolute extrusion mode

G28 ;Home
G29 ;Bed Level 

G92 E0 ;Reset Extruder
G1 Z2.0 F3000 ;Move Z Axis up
G1 X10.1 Y20 Z0.28 F5000.0 ;Move to start position
G1 X10.1 Y200.0 Z0.28 F1500.0 E15 ;Draw the first line
G1 X10.4 Y200.0 Z0.28 F5000.0 ;Move to side a little
G1 X10.4 Y20 Z0.28 F1500.0 E30 ;Draw the second line
G92 E0 ;Reset Extruder
G1 Z2.0 F3000 ;Move Z Axis up
G92 E0
G92 E0
G1 F2700 E-5
;LAYER_COUNT:16
;LAYER:0
M107
;MESH:Timex Cradle Pads.stl
G0 F6000 X119.75 Y162.5 Z0.12
;TYPE:WALL-INNER
G1 F2700 E0
G1 F1200 X102.5 Y162.5 E0.34424
G1 X102.5 Y121.4 E1.16444
G1 X79.5 Y121.4 E1.62343
G1 X79.5 Y162.5 E2.44362
G1 X74.25 Y162.5 E2.54839
G1 X74.25 Y114.5 E3.50628
G1 X119.75 Y114.5 E4.41429
G1 X119.75 Y162.5 E5.37218
G0 F6000 X120.15 Y162.9
G1 F1200 X102.1 Y162.9 E5.73238
G1 X102.1 Y121.8 E6.55258
G1 X79.9 Y121.8 E6.9956
G1 X79.9 Y162.9 E7.8158
G1 X73.85 Y162.9 E7.93653
G1 X73.85 Y114.1 E8.91039
G1 X120.15 Y114.1 E9.83436
G1 X120.15 Y162.9 E10.80821
G0 F6000 X120.55 Y163.3
;TYPE:WALL-OUTER
G1 F1200 X101.7 Y163.3 E11.18439
G1 X101.7 Y122.2 E12.00458
G1 X80.3 Y122.2 E12.43164
G1 X80.3 Y163.3 E13.25184
G1 X73.45 Y163.3 E13.38853
G1 X73.45 Y113.7 E14.37836
G1 X120.55 Y113.7 E15.31829
G1 X120.55 Y163.3 E16.30811
G0 F6000 X120.28 Y163.03
G0 X119.64 Y162.11
G0 X119.36 Y162.11
;TYPE:SKIN
G1 F1200 X102.89 Y162.11 E16.63679
G1 X102.89 Y121.01 E17.45698
G1 X79.11 Y121.01 E17.93154
G1 X79.11 Y162.11 E18.75173
G1 X74.64 Y162.11 E18.84094
G1 X74.64 Y114.89 E19.78326
G1 X119.36 Y114.89 E20.6757
G1 X119.36 Y162.11 E21.61802
G1 F2700 E16.61802
G0 F6000 X119.64 Y162.11
G0 X102.682 Y162.318
G0 X101.928 Y121.972
G0 X80.072 Y121.972
G0 X80.06 Y162.359
G0 X75.399 Y162.39
G0 X75.399 Y161.949
G1 F2700 E21.61802
G1 F1200 X74.799 Y161.349 E21.63496
G0 F6000 X74.799 Y160.784
G1 F1200 X75.965 Y161.949 E21.66785
G0 F6000 X76.53 Y161.949
G1 F1200 X74.799 Y160.218 E21.7167
G0 F6000 X74.799 Y159.652
G1 F1200 X77.096 Y161.949 E21.78153
G0 F6000 X77.662 Y161.949
G1 F1200 X74.799 Y159.087 E21.86231
G0 F6000 X74.799 Y158.521
G1 F1200 X78.227 Y161.949 E21.95906
G0 F6000 X78.793 Y161.949
G1 F1200 X74.799 Y157.955 E22.07178
G0 F6000 X74.799 Y157.389
G1 F1200 X78.95 Y161.54 E22.18893
G0 F6000 X78.95 Y160.974
G1 F1200 X74.799 Y156.824 E22.30607
G0 F6000 X74.799 Y156.258
G1 F1200 X78.95 Y160.409 E22.42322
G0 F6000 X78.95 Y159.843
G1 F1200 X74.799 Y155.692 E22.54037
G0 F6000 X74.799 Y155.127
G1 F1200 X78.95 Y159.277 E22.6575
G0 F6000 X78.95 Y158.712
G1 F1200 X74.799 Y154.561 E22.77465
G0 F6000 X74.799 Y153.995
G1 F1200 X78.95 Y158.146 E22.8918
G0 F6000 X78.95 Y157.58
G1 F1200 X74.799 Y153.43 E23.00894
G0 F6000 X74.799 Y152.864
G1 F1200 X78.95 Y157.015 E23.12609
G0 F6000 X78.95 Y156.449
G1 F1200 X74.799 Y152.298 E23.24324
G0 F6000 X74.799 Y151.733
G1 F1200 X78.95 Y155.883 E23.36037
G0 F6000 X78.95 Y155.318
G1 F1200 X74.799 Y151.167 E23.47753
G0 F6000 X74.799 Y150.601
G1 F1200 X78.95 Y154.752 E23.59468
G0 F6000 X78.95 Y154.186
G1 F1200 X74.799 Y150.036 E23.71181
G0 F6000 X74.799 Y149.47
G1 F1200 X78.95 Y153.621 E23.82896
G0 F6000 X78.95 Y153.055
G1 F1200 X74.799 Y148.904 E23.94611
G0 F6000 X74.799 Y148.338
G1 F1200 X78.95 Y152.489 E24.06326
G0 F6000 X78.95 Y151.924
G1 F1200 X74.799 Y147.773 E24.18041
G0 F6000 X74.799 Y147.207
G1 F1200 X78.95 Y151.358 E24.29756
G0 F6000 X78.95 Y150.792
G1 F1200 X74.799 Y146.641 E24.41471
G0 F6000 X74.799 Y146.076
G1 F1200 X78.95 Y150.226 E24.53185
G0 F6000 X78.95 Y149.661
G1 F1200 X74.799 Y145.51 E24.649
G0 F6000 X74.799 Y144.944
G1 F1200 X78.95 Y149.095 E24.76615
G0 F6000 X78.95 Y148.529
G1 F1200 X74.799 Y144.379 E24.88329
G0 F6000 X74.799 Y143.813
G1 F1200 X78.95 Y147.964 E25.00044
G0 F6000 X78.95 Y147.398
G1 F1200 X74.799 Y143.247 E25.11759
G0 F6000 X74.799 Y142.682
G1 F1200 X78.95 Y146.832 E25.23472
G0 F6000 X78.95 Y146.267
G1 F1200 X74.799 Y142.116 E25.35187
G0 F6000 X74.799 Y141.55
G1 F1200 X78.95 Y145.701 E25.46902
G0 F6000 X78.95 Y145.135
G1 F1200 X74.799 Y140.985 E25.58616
G0 F6000 X74.799 Y140.419
G1 F1200 X78.95 Y144.57 E25.70331
G0 F6000 X78.95 Y144.004
G1 F1200 X74.799 Y139.853 E25.82046
G0 F6000 X74.799 Y139.288
G1 F1200 X78.95 Y143.438 E25.93759
G0 F6000 X78.95 Y142.873
G1 F1200 X74.799 Y138.722 E26.05474
G0 F6000 X74.799 Y138.156
G1 F1200 X78.95 Y142.307 E26.17189
G0 F6000 X78.95 Y141.741
G1 F1200 X74.799 Y137.59 E26.28905
G0 F6000 X74.799 Y137.025
G1 F1200 X78.95 Y141.175 E26.40618
G0 F6000 X78.95 Y140.61
G1 F1200 X74.799 Y136.459 E26.52333
G0 F6000 X74.799 Y135.893
G1 F1200 X78.95 Y140.044 E26.64048
G0 F6000 X78.95 Y139.478
G1 F1200 X74.799 Y135.328 E26.75762
G0 F6000 X74.799 Y134.762
G1 F1200 X78.95 Y138.913 E26.87477
G0 F6000 X78.95 Y138.347
G1 F1200 X74.799 Y134.196 E26.99192
G0 F6000 X74.799 Y133.631
G1 F1200 X78.95 Y137.781 E27.10905
G0 F6000 X78.95 Y137.216
G1 F1200 X74.799 Y133.065 E27.2262
G0 F6000 X74.799 Y132.499
G1 F1200 X78.95 Y136.65 E27.34335
G0 F6000 X78.95 Y136.084
G1 F1200 X74.799 Y131.934 E27.46049
G0 F6000 X74.799 Y131.368
G1 F1200 X78.95 Y135.519 E27.57764
G0 F6000 X78.95 Y134.953
G1 F1200 X74.799 Y130.802 E27.69479
G0 F6000 X74.799 Y130.237
G1 F1200 X78.95 Y134.387 E27.81193
G0 F6000 X78.95 Y133.822
G1 F1200 X74.799 Y129.671 E27.92908
G0 F6000 X74.799 Y129.105
G1 F1200 X78.95 Y133.256 E28.04623
G0 F6000 X78.95 Y132.69
G1 F1200 X74.799 Y128.539 E28.16338
G0 F6000 X74.799 Y127.974
G1 F1200 X78.95 Y132.125 E28.28053
G0 F6000 X78.95 Y131.559
G1 F1200 X74.799 Y127.408 E28.39768
G0 F6000 X74.799 Y126.842
G1 F1200 X78.95 Y130.993 E28.51483
G0 F6000 X78.95 Y130.427
G1 F1200 X74.799 Y126.277 E28.63196
G0 F6000 X74.799 Y125.711
G1 F1200 X78.95 Y129.862 E28.74911
G0 F6000 X78.95 Y129.296
G1 F1200 X74.799 Y125.145 E28.86626
G0 F6000 X74.799 Y124.58
G1 F1200 X78.95 Y128.73 E28.9834
G0 F6000 X78.95 Y128.165
G1 F1200 X74.799 Y124.014 E29.10055
G0 F6000 X74.799 Y123.448
G1 F1200 X78.95 Y127.599 E29.2177
G0 F6000 X78.95 Y127.033
G1 F1200 X74.799 Y122.883 E29.33484
G0 F6000 X74.799 Y122.317
G1 F1200 X78.95 Y126.468 E29.45199
G0 F6000 X78.95 Y125.902
G1 F1200 X74.799 Y121.751 E29.56914
G0 F6000 X74.799 Y121.186
G1 F1200 X78.95 Y125.336 E29.68627
G0 F6000 X78.95 Y124.771
G1 F1200 X74.799 Y120.62 E29.80342
G0 F6000 X74.799 Y120.054
G1 F1200 X78.95 Y124.205 E29.92057
G0 F6000 X78.95 Y123.639
G1 F1200 X74.799 Y119.489 E30.03771
G0 F6000 X74.799 Y118.923
G1 F1200 X78.95 Y123.074 E30.15486
G0 F6000 X78.95 Y122.508
G1 F1200 X74.799 Y118.357 E30.27201
G0 F6000 X74.799 Y117.791
G1 F1200 X78.95 Y121.942 E30.38916
G0 F6000 X78.95 Y121.377
G1 F1200 X74.799 Y117.226 E30.50631
G0 F6000 X74.799 Y116.66
G1 F1200 X78.988 Y120.848 E30.62452
G0 F6000 X79.553 Y120.848
G1 F1200 X74.799 Y116.094 E30.75869
G0 F6000 X74.799 Y115.529
G1 F1200 X80.119 Y120.848 E30.90882
G0 F6000 X80.685 Y120.848
G1 F1200 X74.886 Y115.049 E31.07248
G0 F6000 X75.451 Y115.049
G1 F1200 X81.25 Y120.848 E31.23614
G0 F6000 X81.816 Y120.848
G1 F1200 X76.017 Y115.049 E31.3998
G0 F6000 X76.583 Y115.049
G1 F1200 X82.382 Y120.848 E31.56346
G0 F6000 X82.947 Y120.848
G1 F1200 X77.148 Y115.049 E31.72712
G0 F6000 X77.714 Y115.049
G1 F1200 X83.513 Y120.848 E31.89078
G0 F6000 X84.079 Y120.848
G1 F1200 X78.28 Y115.049 E32.05444
G0 F6000 X78.845 Y115.049
G1 F1200 X84.644 Y120.848 E32.2181
G0 F6000 X85.21 Y120.848
G1 F1200 X79.411 Y115.049 E32.38176
G0 F6000 X79.977 Y115.049
G1 F1200 X85.776 Y120.848 E32.54542
G0 F6000 X86.341 Y120.848
G1 F1200 X80.542 Y115.049 E32.70908
G0 F6000 X81.108 Y115.049
G1 F1200 X86.907 Y120.848 E32.87274
G0 F6000 X87.473 Y120.848
G1 F1200 X81.674 Y115.049 E33.0364
G0 F6000 X82.24 Y115.049
G1 F1200 X88.039 Y120.848 E33.20006
G0 F6000 X88.604 Y120.848
G1 F1200 X82.805 Y115.049 E33.36372
G0 F6000 X83.371 Y115.049
G1 F1200 X89.17 Y120.848 E33.52738
G0 F6000 X89.736 Y120.848
G1 F1200 X83.937 Y115.049 E33.69104
G0 F6000 X84.502 Y115.049
G1 F1200 X90.301 Y120.848 E33.8547
G0 F6000 X90.867 Y120.848
G1 F1200 X85.068 Y115.049 E34.01836
G0 F6000 X85.634 Y115.049
G1 F1200 X91.433 Y120.848 E34.18202
G0 F6000 X91.998 Y120.848
G1 F1200 X86.199 Y115.049 E34.34568
G0 F6000 X86.765 Y115.049
G1 F1200 X92.564 Y120.848 E34.50934
G0 F6000 X93.13 Y120.848
G1 F1200 X87.331 Y115.049 E34.673
G0 F6000 X87.896 Y115.049
G1 F1200 X93.695 Y120.848 E34.83666
G0 F6000 X94.261 Y120.848
G1 F1200 X88.462 Y115.049 E35.00032
G0 F6000 X89.028 Y115.049
G1 F1200 X94.827 Y120.848 E35.16398
G0 F6000 X95.392 Y120.848
G1 F1200 X89.593 Y115.049 E35.32764
G0 F6000 X90.159 Y115.049
G1 F1200 X95.958 Y120.848 E35.4913
G0 F6000 X96.524 Y120.848
G1 F1200 X90.725 Y115.049 E35.65496
G0 F6000 X91.291 Y115.049
G1 F1200 X97.09 Y120.848 E35.81862
G0 F6000 X97.655 Y120.848
G1 F1200 X91.856 Y115.049 E35.98228
G0 F6000 X92.422 Y115.049
G1 F1200 X98.221 Y120.848 E36.14595
G0 F6000 X98.787 Y120.848
G1 F1200 X92.988 Y115.049 E36.30961
G0 F6000 X93.553 Y115.049
G1 F1200 X99.352 Y120.848 E36.47327
G0 F6000 X99.918 Y120.848
G1 F1200 X94.119 Y115.049 E36.63693
G0 F6000 X94.685 Y115.049
G1 F1200 X100.484 Y120.848 E36.80059
G0 F6000 X101.049 Y120.848
G1 F1200 X95.25 Y115.049 E36.96425
G0 F6000 X95.816 Y115.049
G1 F1200 X101.615 Y120.848 E37.12791
G0 F6000 X102.181 Y120.848
G1 F1200 X96.382 Y115.049 E37.29157
G0 F6000 X96.947 Y115.049
G1 F1200 X102.746 Y120.848 E37.45523
G0 F6000 X103.05 Y121.152
G1 F1200 X119.199 Y137.301 E37.91099
G0 F6000 X119.199 Y136.736
G1 F1200 X97.513 Y115.049 E38.52303
G0 F6000 X98.079 Y115.049
G1 F1200 X119.199 Y136.17 E39.11909
G0 F6000 X119.199 Y135.604
G1 F1200 X98.644 Y115.049 E39.6992
G0 F6000 X99.21 Y115.049
G1 F1200 X119.199 Y135.039 E40.26335
G0 F6000 X119.199 Y134.473
G1 F1200 X99.776 Y115.049 E40.81152
G0 F6000 X100.341 Y115.049
G1 F1200 X119.199 Y133.907 E41.34373
G0 F6000 X119.199 Y133.341
G1 F1200 X100.907 Y115.049 E41.85997
G0 F6000 X101.473 Y115.049
G1 F1200 X119.199 Y132.776 E42.36025
G0 F6000 X119.199 Y132.21
G1 F1200 X102.039 Y115.049 E42.84456
G0 F6000 X102.604 Y115.049
G1 F1200 X119.199 Y131.644 E43.31291
G0 F6000 X119.199 Y131.079
G1 F1200 X103.17 Y115.049 E43.76529
G0 F6000 X103.736 Y115.049
G1 F1200 X119.199 Y130.513 E44.20171
G0 F6000 X119.199 Y129.947
G1 F1200 X104.301 Y115.049 E44.62216
G0 F6000 X104.867 Y115.049
G1 F1200 X119.199 Y129.382 E45.02665
G0 F6000 X119.199 Y128.816
G1 F1200 X105.433 Y115.049 E45.41517
G0 F6000 X105.998 Y115.049
G1 F1200 X119.199 Y128.25 E45.78774
G0 F6000 X119.199 Y127.685
G1 F1200 X106.564 Y115.049 E46.14434
G0 F6000 X107.13 Y115.049
G1 F1200 X119.199 Y127.119 E46.48496
G0 F6000 X119.199 Y126.553
G1 F1200 X107.695 Y115.049 E46.80963
G0 F6000 X108.261 Y115.049
G1 F1200 X119.199 Y125.988 E47.11834
G0 F6000 X119.199 Y125.422
G1 F1200 X108.827 Y115.049 E47.41107
G0 F6000 X109.392 Y115.049
G1 F1200 X119.199 Y124.856 E47.68785
G0 F6000 X119.199 Y124.29
G1 F1200 X109.958 Y115.049 E47.94865
G0 F6000 X110.524 Y115.049
G1 F1200 X119.199 Y123.725 E48.19349
G0 F6000 X119.199 Y123.159
G1 F1200 X111.09 Y115.049 E48.42236
G0 F6000 X111.655 Y115.049
G1 F1200 X119.199 Y122.593 E48.63527
G0 F6000 X119.199 Y122.028
G1 F1200 X112.221 Y115.049 E48.83222
G0 F6000 X112.787 Y115.049
G1 F1200 X119.199 Y121.462 E49.01319
G0 F6000 X119.199 Y120.896
G1 F1200 X113.352 Y115.049 E49.1782
G0 F6000 X113.918 Y115.049
G1 F1200 X119.199 Y120.331 E49.32726
G0 F6000 X119.199 Y119.765
G1 F1200 X114.484 Y115.049 E49.46034
G0 F6000 X115.049 Y115.049
G1 F1200 X119.199 Y119.199 E49.57746
G0 F6000 X119.199 Y118.634
G1 F1200 X115.615 Y115.049 E49.67863
G0 F6000 X116.181 Y115.049
G1 F1200 X119.199 Y118.068 E49.76381
G0 F6000 X119.199 Y117.502
G1 F1200 X116.746 Y115.049 E49.83304
G0 F6000 X117.312 Y115.049
G1 F1200 X119.199 Y116.937 E49.88631
G0 F6000 X119.199 Y116.371
G1 F1200 X117.878 Y115.049 E49.92361
G0 F6000 X118.443 Y115.049
G1 F1200 X119.199 Y115.805 E49.94494
G0 F6000 X119.199 Y115.24
G1 F1200 X119.009 Y115.049 E49.95032
G1 F2700 E44.95032
G0 F6000 X119.009 Y114.61
G0 X119.568 Y114.682
G0 X119.568 Y162.318
G0 X102.682 Y162.318
G0 X102.61 Y121.717
G0 X103.05 Y121.717
G1 F2700 E49.95032
G1 F1200 X119.199 Y137.867 E50.40609
G0 F6000 X119.199 Y138.433
G1 F1200 X103.05 Y122.283 E50.86187
G0 F6000 X103.05 Y122.849
G1 F1200 X119.2 Y138.999 E51.31766
G0 F6000 X119.2 Y139.565
G1 F1200 X103.05 Y123.414 E51.77346
G0 F6000 X103.05 Y123.98
G1 F1200 X119.2 Y140.13 E52.22925
G0 F6000 X119.2 Y140.696
G1 F1200 X103.05 Y124.546 E52.68503
G0 F6000 X103.05 Y125.111
G1 F1200 X119.2 Y141.262 E53.14084
G0 F6000 X119.2 Y141.827
G1 F1200 X103.05 Y125.677 E53.59662
G0 F6000 X103.05 Y126.243
G1 F1200 X119.2 Y142.393 E54.05241
G0 F6000 X119.2 Y142.959
G1 F1200 X103.05 Y126.808 E54.50821
G0 F6000 X103.05 Y127.374
G1 F1200 X119.2 Y143.524 E54.964
G0 F6000 X119.2 Y144.09
G1 F1200 X103.05 Y127.94 E55.41979
G0 F6000 X103.05 Y128.506
G1 F1200 X119.2 Y144.656 E55.87558
G0 F6000 X119.2 Y145.222
G1 F1200 X103.05 Y129.071 E56.33138
G0 F6000 X103.05 Y129.637
G1 F1200 X119.2 Y145.787 E56.78717
G0 F6000 X119.2 Y146.353
G1 F1200 X103.05 Y130.203 E57.24296
G0 F6000 X103.05 Y130.768
G1 F1200 X119.2 Y146.919 E57.69876
G0 F6000 X119.2 Y147.484
G1 F1200 X103.05 Y131.334 E58.15455
G0 F6000 X103.05 Y131.9
G1 F1200 X119.2 Y148.05 E58.61033
G0 F6000 X119.2 Y148.616
G1 F1200 X103.05 Y132.465 E59.06614
G0 F6000 X103.05 Y133.031
G1 F1200 X119.2 Y149.181 E59.52192
G0 F6000 X119.2 Y149.747
G1 F1200 X103.05 Y133.597 E59.97771
G0 F6000 X103.05 Y134.162
G1 F1200 X119.2 Y150.313 E60.43351
G0 F6000 X119.2 Y150.878
G1 F1200 X103.05 Y134.728 E60.8893
G0 F6000 X103.05 Y135.294
G1 F1200 X119.2 Y151.444 E61.34509
G0 F6000 X119.2 Y152.01
G1 F1200 X103.05 Y135.859 E61.80089
G0 F6000 X103.05 Y136.425
G1 F1200 X119.2 Y152.575 E62.25668
G0 F6000 X119.2 Y153.141
G1 F1200 X103.05 Y136.991 E62.71247
G0 F6000 X103.05 Y137.557
G1 F1200 X119.2 Y153.707 E63.16825
G0 F6000 X119.2 Y154.273
G1 F1200 X103.05 Y138.122 E63.62406
G0 F6000 X103.05 Y138.688
G1 F1200 X119.2 Y154.838 E64.07984
G0 F6000 X119.2 Y155.404
G1 F1200 X103.05 Y139.254 E64.53563
G0 F6000 X103.05 Y139.819
G1 F1200 X119.2 Y155.97 E64.99143
G0 F6000 X119.2 Y156.535
G1 F1200 X103.05 Y140.385 E65.44722
G0 F6000 X103.05 Y140.951
G1 F1200 X119.2 Y157.101 E65.90301
G0 F6000 X119.2 Y157.667
G1 F1200 X103.05 Y141.516 E66.35881
G0 F6000 X103.05 Y142.082
G1 F1200 X119.2 Y158.232 E66.8146
G0 F6000 X119.2 Y158.798
G1 F1200 X103.05 Y142.648 E67.27039
G0 F6000 X103.05 Y143.213
G1 F1200 X119.2 Y159.364 E67.72619
G0 F6000 X119.2 Y159.929
G1 F1200 X103.05 Y143.779 E68.18198
G0 F6000 X103.05 Y144.345
G1 F1200 X119.2 Y160.495 E68.63777
G0 F6000 X119.2 Y161.061
G1 F1200 X103.05 Y144.91 E69.09357
G0 F6000 X103.05 Y145.476
G1 F1200 X119.2 Y161.626 E69.54936
G0 F6000 X118.957 Y161.949
G1 F1200 X103.05 Y146.042 E69.99829
G0 F6000 X103.05 Y146.607
G1 F1200 X118.391 Y161.949 E70.43126
G0 F6000 X117.825 Y161.949
G1 F1200 X103.05 Y147.173 E70.84825
G0 F6000 X103.05 Y147.739
G1 F1200 X117.26 Y161.949 E71.24929
G0 F6000 X116.694 Y161.949
G1 F1200 X103.05 Y148.305 E71.63435
G0 F6000 X103.05 Y148.87
G1 F1200 X116.128 Y161.949 E72.00346
G0 F6000 X115.563 Y161.949
G1 F1200 X103.05 Y149.436 E72.3566
G0 F6000 X103.05 Y150.002
G1 F1200 X114.997 Y161.949 E72.69377
G0 F6000 X114.431 Y161.949
G1 F1200 X103.05 Y150.567 E73.01498
G0 F6000 X103.05 Y151.133
G1 F1200 X113.866 Y161.949 E73.32023
G0 F6000 X113.3 Y161.949
G1 F1200 X103.05 Y151.699 E73.60951
G0 F6000 X103.05 Y152.264
G1 F1200 X112.734 Y161.949 E73.88283
G0 F6000 X112.169 Y161.949
