;FLAVOR:Marlin
;TIME:27931
;Filament used: 15.918m
;Layer height: 0.12
;MINX:93.725
;MINY:72.7
;MINZ:0.12
;MAXX:131.275
;MAXY:152.3
;MAXZ:60
;Generated with Creality Slicer 4.8.2-254
M140 S50
M105
M190 S50
M104 S200
M105
M109 S200
M82 ;absolute extrusion mode

G28 ;Home
G29 ;Bed Level 

G92 E0 ;Reset Extruder
G1 Z2.0 F3000 ;Move Z Axis up
G1 X10.1 Y20 Z0.28 F5000.0 ;Move to start position
G1 X10.1 Y200.0 Z0.28 F1500.0 E15 ;Draw the first line
G1 X10.4 Y200.0 Z0.28 F5000.0 ;Move to side a little
G1 X10.4 Y20 Z0.28 F1500.0 E30 ;Draw the second line
G92 E0 ;Reset Extruder
G1 Z2.0 F3000 ;Move Z Axis up
G92 E0
G92 E0
G1 F2700 E-5
;LAYER_COUNT:500
;LAYER:0
M107
;MESH:Timex Cradle 4.stl
G0 F6000 X94.525 Y151.5 Z0.12
;TYPE:WALL-INNER
G1 F2700 E0
G1 F1200 X94.525 Y73.5 E1.55657
G1 X129.178 Y73.5 E2.24811
G1 X129.565 Y73.552 E2.2559
G1 X129.874 Y73.687 E2.26263
G1 X130.131 Y73.896 E2.26924
G1 X130.327 Y74.173 E2.27602
G1 X130.447 Y74.51 E2.28316
G1 X130.475 Y74.824 E2.28945
G1 X130.475 Y132.233 E3.4351
G1 X130.423 Y132.62 E3.4429
G1 X130.289 Y132.926 E3.44956
G1 X130.074 Y133.191 E3.45637
G1 X129.802 Y133.382 E3.46301
G1 X129.465 Y133.502 E3.47015
G1 X129.181 Y133.53 E3.47584
G1 X114.975 Y133.53 E3.75934
G1 X114.975 Y150.203 E4.09206
G1 X114.923 Y150.59 E4.09986
G1 X114.789 Y150.896 E4.10652
G1 X114.574 Y151.161 E4.11333
G1 X114.303 Y151.352 E4.11995
G1 X113.968 Y151.471 E4.12704
G1 X113.648 Y151.5 E4.13346
G1 X94.525 Y151.5 E4.51508
G0 F6000 X94.125 Y151.9
G1 F1200 X94.125 Y73.1 E6.08762
G1 X129.201 Y73.1 E6.78759
G1 X129.673 Y73.163 E6.7971
G1 X130.084 Y73.343 E6.80605
G1 X130.125 Y73.377 E6.80711
G1 X130.426 Y73.621 E6.81485
G1 X130.686 Y73.988 E6.82382
G1 X130.84 Y74.423 E6.83303
G1 X130.844 Y74.474 E6.83405
G1 X130.872 Y74.787 E6.84032
G1 X130.875 Y74.81 E6.84079
G1 X130.875 Y132.256 E7.98718
G1 X130.812 Y132.728 E7.99669
G1 X130.632 Y133.139 E8.00564
G1 X130.351 Y133.485 E8.01454
G1 X129.987 Y133.741 E8.02342
G1 X129.552 Y133.895 E8.03262
G1 X129.201 Y133.93 E8.03966
G1 X115.375 Y133.93 E8.31558
G1 X115.375 Y150.226 E8.64078
G1 X115.312 Y150.698 E8.65028
G1 X115.132 Y151.109 E8.65924
G1 X114.851 Y151.455 E8.66813
G1 X114.533 Y151.678 E8.67588
G1 X114.487 Y151.711 E8.67701
G1 X114.056 Y151.864 E8.68614
G1 X114.005 Y151.868 E8.68716
G1 X113.686 Y151.897 E8.69355
G1 X113.662 Y151.9 E8.69404
G1 X94.125 Y151.9 E9.08392
G0 F6000 X93.725 Y152.3
;TYPE:WALL-OUTER
G1 F1200 X93.725 Y72.7 E10.67242
G1 X129.212 Y72.7 E11.3806
G1 X129.506 Y72.719 E11.38648
G1 X129.78 Y72.776 E11.39207
G1 X130.041 Y72.869 E11.3976
G1 X130.289 Y72.998 E11.40318
G1 X130.519 Y73.16 E11.40879
G1 X130.721 Y73.349 E11.41431
G1 X130.897 Y73.564 E11.41986
G1 X131.043 Y73.806 E11.4255
G1 X131.154 Y74.062 E11.43106
G1 X131.232 Y74.336 E11.43675
G1 X131.269 Y74.609 E11.44225
G1 X131.275 Y74.81 E11.44626
G1 X131.275 Y132.267 E12.59288
G1 X131.256 Y132.561 E12.59876
G1 X131.199 Y132.835 E12.60434
G1 X131.106 Y133.096 E12.60987
G1 X130.977 Y133.344 E12.61545
G1 X130.816 Y133.573 E12.62104
G1 X130.627 Y133.776 E12.62657
G1 X130.411 Y133.952 E12.63213
G1 X130.169 Y134.098 E12.63777
G1 X129.913 Y134.209 E12.64334
G1 X129.639 Y134.287 E12.64902
G1 X129.366 Y134.324 E12.65452
G1 X129.217 Y134.33 E12.6575
G1 X115.775 Y134.33 E12.92575
G1 X115.775 Y150.237 E13.24319
G1 X115.756 Y150.531 E13.24907
G1 X115.699 Y150.805 E13.25465
G1 X115.606 Y151.066 E13.26018
G1 X115.477 Y151.314 E13.26576
G1 X115.316 Y151.543 E13.27135
G1 X115.127 Y151.746 E13.27688
G1 X114.911 Y151.922 E13.28244
G1 X114.669 Y152.068 E13.28808
G1 X114.413 Y152.179 E13.29365
G1 X114.14 Y152.256 E13.29931
G1 X113.863 Y152.295 E13.30489
G1 X113.672 Y152.3 E13.30871
G1 X93.725 Y152.3 E13.70677
G0 F6000 X93.995 Y152.03
G0 X94.635 Y151.11
G0 X94.915 Y151.11
;TYPE:SKIN
G1 F1200 X94.915 Y73.89 E15.24778
G1 X129.156 Y73.89 E15.9311
G1 X129.459 Y73.93 E15.9372
G1 X129.67 Y74.023 E15.9418
G1 X129.842 Y74.163 E15.94622
G1 X129.979 Y74.356 E15.95095
G1 X130.063 Y74.594 E15.95598
G1 X130.085 Y74.837 E15.96085
G1 X130.085 Y132.211 E17.10581
G1 X130.045 Y132.514 E17.11191
G1 X129.954 Y132.719 E17.11639
G1 X129.806 Y132.902 E17.12108
G1 X129.618 Y133.034 E17.12567
G1 X129.381 Y133.118 E17.13069
G1 X129.162 Y133.14 E17.13508
G1 X114.585 Y133.14 E17.42598
G1 X114.585 Y150.181 E17.76605
G1 X114.545 Y150.484 E17.77215
G1 X114.454 Y150.689 E17.77662
G1 X114.304 Y150.875 E17.78139
G1 X114.122 Y151.003 E17.78583
G1 X113.885 Y151.087 E17.79085
G1 X113.635 Y151.11 E17.79586
G1 X94.915 Y151.11 E18.16944
G0 F6000 X95.511 Y150.948
G1 F1200 X95.074 Y150.511 E18.18177
G0 F6000 X95.074 Y149.945
G1 F1200 X96.077 Y150.948 E18.21008
G0 F6000 X96.643 Y150.948
G1 F1200 X95.074 Y149.379 E18.25436
G0 F6000 X95.074 Y148.814
G1 F1200 X97.208 Y150.948 E18.31459
G0 F6000 X97.774 Y150.948
G1 F1200 X95.074 Y148.248 E18.39079
G0 F6000 X95.074 Y147.682
G1 F1200 X98.34 Y150.948 E18.48296
G0 F6000 X98.905 Y150.948
G1 F1200 X95.074 Y147.117 E18.59108
G0 F6000 X95.074 Y146.551
G1 F1200 X99.471 Y150.948 E18.71517
G0 F6000 X100.037 Y150.948
G1 F1200 X95.074 Y145.985 E18.85524
G0 F6000 X95.074 Y145.42
G1 F1200 X100.602 Y150.948 E19.01125
G0 F6000 X101.168 Y150.948
G1 F1200 X95.074 Y144.854 E19.18324
G0 F6000 X95.074 Y144.288
G1 F1200 X101.734 Y150.948 E19.3712
G0 F6000 X102.299 Y150.948
G1 F1200 X95.074 Y143.722 E19.57511
G0 F6000 X95.074 Y143.157
G1 F1200 X102.865 Y150.948 E19.79499
G0 F6000 X103.431 Y150.948
G1 F1200 X95.074 Y142.591 E20.03085
G0 F6000 X95.074 Y142.025
G1 F1200 X103.997 Y150.948 E20.28267
G0 F6000 X104.562 Y150.948
G1 F1200 X95.074 Y141.46 E20.55044
G0 F6000 X95.074 Y140.894
G1 F1200 X105.128 Y150.948 E20.83419
G0 F6000 X105.694 Y150.948
G1 F1200 X95.074 Y140.328 E21.13391
G0 F6000 X95.074 Y139.763
G1 F1200 X106.259 Y150.948 E21.44957
G0 F6000 X106.825 Y150.948
G1 F1200 X95.074 Y139.197 E21.78121
G0 F6000 X95.074 Y138.631
G1 F1200 X107.391 Y150.948 E22.12882
G0 F6000 X107.956 Y150.948
G1 F1200 X95.074 Y138.066 E22.49238
G0 F6000 X95.074 Y137.5
G1 F1200 X108.522 Y150.948 E22.87191
G0 F6000 X109.088 Y150.948
G1 F1200 X95.074 Y136.934 E23.26742
G0 F6000 X95.074 Y136.369
G1 F1200 X109.653 Y150.948 E23.67887
G0 F6000 X110.219 Y150.948
G1 F1200 X95.074 Y135.803 E24.1063
G0 F6000 X95.074 Y135.237
G1 F1200 X110.785 Y150.948 E24.54969
G0 F6000 X111.35 Y150.948
G1 F1200 X95.074 Y134.672 E25.00904
G0 F6000 X95.074 Y134.106
G1 F1200 X111.916 Y150.948 E25.48436
G0 F6000 X112.482 Y150.948
G1 F1200 X95.074 Y133.54 E25.97565
G0 F6000 X95.074 Y132.974
G1 F1200 X113.047 Y150.948 E26.4829
G0 F6000 X113.613 Y150.948
G1 F1200 X95.074 Y132.409 E27.00611
G0 F6000 X95.074 Y131.843
G1 F1200 X114.071 Y150.841 E27.54226
G0 F6000 X114.341 Y150.545
G1 F1200 X95.074 Y131.277 E28.08603
G0 F6000 X95.074 Y130.712
G1 F1200 X114.425 Y150.063 E28.63216
G0 F6000 X114.425 Y149.497
G1 F1200 X95.074 Y130.146 E29.17828
G0 F6000 X95.074 Y129.58
G1 F1200 X114.425 Y148.932 E29.72442
G0 F6000 X114.425 Y148.366
G1 F1200 X95.074 Y129.015 E30.27055
G0 F6000 X95.074 Y128.449
G1 F1200 X114.425 Y147.8 E30.81668
G0 F6000 X114.425 Y147.235
G1 F1200 X95.074 Y127.883 E31.36282
G0 F6000 X95.074 Y127.318
G1 F1200 X114.425 Y146.669 E31.90895
G0 F6000 X114.425 Y146.103
G1 F1200 X95.074 Y126.752 E32.45507
G0 F6000 X95.074 Y126.186
G1 F1200 X114.425 Y145.538 E33.00121
G0 F6000 X114.425 Y144.972
G1 F1200 X95.074 Y125.621 E33.54734
G0 F6000 X95.074 Y125.055
G1 F1200 X114.425 Y144.406 E34.09347
G0 F6000 X114.425 Y143.841
G1 F1200 X95.074 Y124.489 E34.63961
G0 F6000 X95.074 Y123.923
G1 F1200 X114.425 Y143.275 E35.18575
G0 F6000 X114.425 Y142.709
G1 F1200 X95.074 Y123.358 E35.73188
G0 F6000 X95.074 Y122.792
G1 F1200 X114.425 Y142.144 E36.27802
G0 F6000 X114.425 Y141.578
G1 F1200 X95.074 Y122.226 E36.82416
G0 F6000 X95.074 Y121.661
G1 F1200 X114.425 Y141.012 E37.37029
G0 F6000 X114.425 Y140.446
G1 F1200 X95.074 Y121.095 E37.91641
G0 F6000 X95.074 Y120.529
G1 F1200 X114.425 Y139.881 E38.46256
G0 F6000 X114.425 Y139.315
G1 F1200 X95.074 Y119.964 E39.00868
G0 F6000 X95.074 Y119.398
G1 F1200 X114.425 Y138.749 E39.55481
G0 F6000 X114.425 Y138.184
G1 F1200 X95.074 Y118.832 E40.10095
G0 F6000 X95.074 Y118.267
G1 F1200 X114.425 Y137.618 E40.64708
G0 F6000 X114.425 Y137.052
G1 F1200 X95.074 Y117.701 E41.1932
G0 F6000 X95.074 Y117.135
G1 F1200 X114.425 Y136.487 E41.73935
G0 F6000 X114.425 Y135.921
G1 F1200 X95.074 Y116.57 E42.28547
G0 F6000 X95.074 Y116.004
G1 F1200 X114.425 Y135.355 E42.8316
G0 F6000 X114.425 Y134.79
G1 F1200 X95.074 Y115.438 E43.37774
G0 F6000 X95.074 Y114.873
G1 F1200 X114.425 Y134.224 E43.92387
G0 F6000 X114.425 Y133.658
G1 F1200 X95.074 Y114.307 E44.47
G0 F6000 X95.074 Y113.741
G1 F1200 X114.425 Y133.093 E45.01614
G0 F6000 X114.877 Y132.979
G1 F1200 X95.074 Y113.175 E45.57503
G0 F6000 X95.074 Y112.61
G1 F1200 X115.442 Y132.979 E46.14988
G0 F6000 X116.008 Y132.979
G1 F1200 X95.074 Y112.044 E46.74069
G0 F6000 X95.074 Y111.478
G1 F1200 X116.574 Y132.979 E47.34748
G0 F6000 X117.14 Y132.979
G1 F1200 X95.074 Y110.913 E47.97023
G0 F6000 X95.074 Y110.347
G1 F1200 X117.705 Y132.979 E48.60894
G0 F6000 X118.271 Y132.979
G1 F1200 X95.074 Y109.781 E49.26363
G0 F6000 X95.074 Y109.216
G1 F1200 X118.837 Y132.979 E49.93427
G0 F6000 X119.402 Y132.979
G1 F1200 X95.074 Y108.65 E50.62087
G0 F6000 X95.074 Y108.084
G1 F1200 X119.968 Y132.979 E51.32345
G0 F6000 X120.534 Y132.979
G1 F1200 X95.074 Y107.519 E52.04199
G0 F6000 X95.074 Y106.953
G1 F1200 X121.099 Y132.979 E52.77648
G0 F6000 X121.665 Y132.979
G1 F1200 X95.074 Y106.387 E53.52695
G0 F6000 X95.074 Y105.822
G1 F1200 X122.231 Y132.979 E54.29338
G0 F6000 X122.796 Y132.979
G1 F1200 X95.074 Y105.256 E55.07577
G0 F6000 X95.074 Y104.69
G1 F1200 X123.362 Y132.979 E55.87413
G0 F6000 X123.928 Y132.979
G1 F1200 X95.074 Y104.125 E56.68845
G0 F6000 X95.074 Y103.559
G1 F1200 X124.493 Y132.979 E57.51874
G0 F6000 X125.059 Y132.979
G1 F1200 X95.074 Y102.993 E58.36499
G0 F6000 X95.074 Y102.427
G1 F1200 X125.625 Y132.979 E59.22722
G0 F6000 X126.19 Y132.979
G1 F1200 X95.074 Y101.862 E60.1054
G0 F6000 X95.074 Y101.296
G1 F1200 X126.756 Y132.979 E60.99955
G0 F6000 X127.322 Y132.979
G1 F1200 X95.074 Y100.73 E61.90967
G0 F6000 X95.074 Y100.165
G1 F1200 X127.888 Y132.979 E62.83575
G0 F6000 X128.453 Y132.979
G1 F1200 X95.074 Y99.599 E63.77779
G0 F6000 X95.074 Y99.033
G1 F1200 X129.019 Y132.979 E64.73581
G0 F6000 X129.508 Y132.902
G1 F1200 X95.074 Y98.468 E65.70761
G0 F6000 X95.074 Y97.902
G1 F1200 X129.81 Y132.639 E66.68795
G0 F6000 X129.925 Y132.187
G1 F1200 X95.074 Y97.336 E67.67152
G0 F6000 X95.074 Y96.771
G1 F1200 X129.925 Y131.622 E68.65509
G0 F6000 X129.925 Y131.056
G1 F1200 X95.074 Y96.205 E69.63866
G0 F6000 X95.074 Y95.639
G1 F1200 X129.925 Y130.49 E70.62223
G0 F6000 X129.925 Y129.925
G1 F1200 X95.074 Y95.074 E71.6058
G0 F6000 X95.074 Y94.508
G1 F1200 X129.925 Y129.359 E72.58937
G0 F6000 X129.925 Y128.793
G1 F1200 X95.074 Y93.942 E73.57294
G0 F6000 X95.074 Y93.376
G1 F1200 X129.925 Y128.228 E74.55653
G0 F6000 X129.925 Y127.662
G1 F1200 X95.074 Y92.811 E75.5401
G0 F6000 X95.074 Y92.245
G1 F1200 X129.925 Y127.096 E76.52367
G0 F6000 X129.925 Y126.531
G1 F1200 X95.074 Y91.679 E77.50725
G0 F6000 X95.074 Y91.114
G1 F1200 X129.925 Y125.965 E78.49082
G0 F6000 X129.925 Y125.399
G1 F1200 X95.074 Y90.548 E79.47439
G0 F6000 X95.074 Y89.982
G1 F1200 X129.925 Y124.834 E80.45798
G0 F6000 X129.925 Y124.268
G1 F1200 X95.074 Y89.417 E81.44155
G0 F6000 X95.074 Y88.851
G1 F1200 X129.925 Y123.702 E82.42512
G0 F6000 X129.925 Y123.136
G1 F1200 X95.074 Y88.285 E83.40869
G0 F6000 X95.074 Y87.72
G1 F1200 X129.925 Y122.571 E84.39226
G0 F6000 X129.925 Y122.005
G1 F1200 X95.074 Y87.154 E85.37583
G0 F6000 X95.074 Y86.588
G1 F1200 X129.925 Y121.439 E86.3594
G0 F6000 X129.925 Y120.874
G1 F1200 X95.074 Y86.023 E87.34297
G0 F6000 X95.074 Y85.457
G1 F1200 X129.925 Y120.308 E88.32654
G0 F6000 X129.925 Y119.742
G1 F1200 X95.074 Y84.891 E89.31011
G0 F6000 X95.074 Y84.326
G1 F1200 X129.925 Y119.177 E90.29368
G0 F6000 X129.925 Y118.611
G1 F1200 X95.074 Y83.76 E91.27725
G0 F6000 X95.074 Y83.194
G1 F1200 X129.925 Y118.045 E92.26082
G0 F6000 X129.925 Y117.48
G1 F1200 X95.074 Y82.628 E93.24441
G0 F6000 X95.074 Y82.063
G1 F1200 X129.925 Y116.914 E94.22798
G0 F6000 X129.925 Y116.348
G1 F1200 X95.074 Y81.497 E95.21155
G0 F6000 X95.074 Y80.931
G1 F1200 X129.925 Y115.783 E96.19513
G0 F6000 X129.925 Y115.217
G1 F1200 X95.074 Y80.366 E97.1787
G0 F6000 X95.074 Y79.8
G1 F1200 X129.925 Y114.651 E98.16227
G0 F6000 X129.925 Y114.086
G1 F1200 X95.074 Y79.234 E99.14586
G0 F6000 X95.074 Y78.669
G1 F1200 X129.925 Y113.52 E100.12943
G0 F6000 X129.925 Y112.954
G1 F1200 X95.074 Y78.103 E101.113
G0 F6000 X95.074 Y77.537
G1 F1200 X129.925 Y112.388 E102.09657
G0 F6000 X129.925 Y111.823
G1 F1200 X95.074 Y76.972 E103.08014
G0 F6000 X95.074 Y76.406
G1 F1200 X129.925 Y111.257 E104.06371
G0 F6000 X129.925 Y110.691
G1 F1200 X95.074 Y75.84 E105.04728
G0 F6000 X95.074 Y75.275
G1 F1200 X129.925 Y110.126 E106.03085
G0 F6000 X129.925 Y109.56
G1 F1200 X95.074 Y74.709 E107.01442
G0 F6000 X95.074 Y74.143
G1 F1200 X129.925 Y108.994 E107.99799
G0 F6000 X129.925 Y108.429
G1 F1200 X95.546 Y74.05 E108.96824
G0 F6000 X96.112 Y74.05
G1 F1200 X129.925 Y107.863 E109.92252
G0 F6000 X129.925 Y107.297
G1 F1200 X96.677 Y74.05 E110.86084
G0 F6000 X97.243 Y74.05
G1 F1200 X129.925 Y106.732 E111.78319
G0 F6000 X129.925 Y106.166
G1 F1200 X97.809 Y74.05 E112.68957
G0 F6000 X98.374 Y74.05
G1 F1200 X129.925 Y105.6 E113.58
G0 F6000 X129.925 Y105.035
G1 F1200 X98.94 Y74.05 E114.45446
G0 F6000 X99.506 Y74.05
G1 F1200 X129.925 Y104.469 E115.31295
G0 F6000 X129.925 Y103.903
G1 F1200 X100.071 Y74.05 E116.15548
G0 F6000 X100.637 Y74.05
G1 F1200 X129.925 Y103.337 E116.98204
G0 F6000 X129.925 Y102.772
G1 F1200 X101.203 Y74.05 E117.79264
G0 F6000 X101.768 Y74.05
G1 F1200 X129.925 Y102.206 E118.58727
G0 F6000 X129.925 Y101.64
G1 F1200 X102.334 Y74.05 E119.36594
G0 F6000 X102.9 Y74.05
G1 F1200 X129.925 Y101.075 E120.12864
G0 F6000 X129.925 Y100.509
G1 F1200 X103.465 Y74.05 E120.87538
G0 F6000 X104.031 Y74.05
G1 F1200 X129.925 Y99.943 E121.60615
G0 F6000 X129.925 Y99.378
G1 F1200 X104.597 Y74.05 E122.32097
G0 F6000 X105.163 Y74.05
G1 F1200 X129.925 Y98.812 E123.0198
G0 F6000 X129.925 Y98.246
G1 F1200 X105.728 Y74.05 E123.70268
G0 F6000 X106.294 Y74.05
G1 F1200 X129.925 Y97.681 E124.3696
G0 F6000 X129.925 Y97.115
G1 F1200 X106.86 Y74.05 E125.02054
G0 F6000 X107.425 Y74.05
G1 F1200 X129.925 Y96.549 E125.65553
G0 F6000 X129.925 Y95.984
G1 F1200 X107.991 Y74.05 E126.27455
G0 F6000 X108.557 Y74.05
G1 F1200 X129.925 Y95.418 E126.8776
G0 F6000 X129.925 Y94.852
G1 F1200 X109.122 Y74.05 E127.46469
G0 F6000 X109.688 Y74.05
G1 F1200 X129.925 Y94.287 E128.03583
G0 F6000 X129.925 Y93.721
G1 F1200 X110.254 Y74.05 E128.59098
G0 F6000 X110.819 Y74.05
G1 F1200 X129.925 Y93.155 E129.13018
G0 F6000 X129.925 Y92.589
G1 F1200 X111.385 Y74.05 E129.65341
G0 F6000 X111.951 Y74.05
G1 F1200 X129.925 Y92.024 E130.16067
G0 F6000 X129.925 Y91.458
G1 F1200 X112.516 Y74.05 E130.65198
G0 F6000 X113.082 Y74.05
G1 F1200 X129.925 Y90.892 E131.12731
G0 F6000 X129.925 Y90.327
G1 F1200 X113.648 Y74.05 E131.58668
G0 F6000 X114.214 Y74.05
G1 F1200 X129.925 Y89.761 E132.03008
G0 F6000 X129.925 Y89.195
G1 F1200 X114.779 Y74.05 E132.45752
G0 F6000 X115.345 Y74.05
G1 F1200 X129.925 Y88.63 E132.869
G0 F6000 X129.925 Y88.064
G1 F1200 X115.911 Y74.05 E133.2645
G0 F6000 X116.476 Y74.05
G1 F1200 X129.925 Y87.498 E133.64405
G0 F6000 X129.925 Y86.933
G1 F1200 X117.042 Y74.05 E134.00764
G0 F6000 X117.608 Y74.05
G1 F1200 X129.925 Y86.367 E134.35525
G0 F6000 X129.925 Y85.801
